X: 1
T: Muilleann Na Maidi
M: 4/4
L: 1/8
R: reel
K: Dmaj
|:FD (3DDD FDGE|FD (3DDD EFGE|FD (3DDD FDEF|1G2 BG EFGE:|2G2 BG EFGB||
A3 d BGAF|DFAF EFGB|A3 d BGAF|1G2 BG EFGB:|2G2 BG EFGA||
fd (3ddd fdgd|fd (3ddd efge|fd (3ddd fdef|1(3ggg bg efge:|2(3ggg bg egfe||
(3ddd ad bdad|dfaf egfe|dfaf bfaf|(3ggg bg egfe:|
d2 AG FD (3DDD|FD (3DDD FA A2|A3 d BdAG|EDCD EFGB|
d2 AG FD (3DDD|FD (3DDD FA A2|A3 d BdAG|EDCD EFDD||
